icons/fill-new-other-mouse.svg

<svg xmlns="http://www.w3.org/2000/svg" width="32px" height="32px" viewBox="0 0 32 32" version="1.1">
    <title>fill-new-other-mouse</title>
    <g id="fill-new-other-mouse" stroke-width="1" fill-rule="evenodd">
        <path d="M14,2 C15.6568542,2 17,3.34314575 17,5 L17,6 L20,6 C23.3137085,6 26,8.6862915 26,12 L26,24 C26,27.3137085 23.3137085,30 20,30 L12,30 C8.6862915,30 6,27.3137085 6,24 L6,12 C6,8.6862915 8.6862915,6 12,6 L15,6 L15,5 C15,4.44771525 14.5522847,4 14,4 L11,4 C10.4477153,4 10,3.55228475 10,3 C10,2.44771525 10.4477153,2 11,2 L14,2 Z M16,10 C15.4477153,10 15,10.4477153 15,11 L15,15 C15,15.5522847 15.4477153,16 16,16 C16.5522847,16 17,15.5522847 17,15 L17,11 C17,10.4477153 16.5522847,10 16,10 Z" id="&#24418;&#29366;" />
    </g>
</svg>

<svg xmlns="http://www.w3.org/2000/svg" viewBox="0 0 32 32"><path fill="currentColor" d="M14 2a3 3 0 0 1 3 3v1h3a6 6 0 0 1 6 6v12a6 6 0 0 1-6 6h-8a6 6 0 0 1-6-6V12a6 6 0 0 1 6-6h3V5a1 1 0 0 0-1-1h-3a1 1 0 0 1 0-2zm2 8a1 1 0 0 0-1 1v4a1 1 0 0 0 2 0v-4a1 1 0 0 0-1-1"/></svg>
